public/socials/youtube.svg

<svg width="30" height="30" viewBox="0 0 30 30" fill="none" xmlns="http://www.w3.org/2000/svg">
<g id="bi:youtube" clip-path="url(#clip0_200_606)">
<path id="Vector" d="M15.0956 3.74811H15.2625C16.8037 3.75373 24.6131 3.80998 26.7187 4.37623C27.3553 4.54905 27.9353 4.8859 28.4009 5.35312C28.8665 5.82035 29.2013 6.40158 29.3719 7.03873C29.5612 7.75123 29.6944 8.69436 29.7844 9.66748L29.8031 9.86248L29.8444 10.35L29.8594 10.545C29.9812 12.2587 29.9962 13.8637 29.9981 14.2144V14.355C29.9962 14.7187 29.9794 16.4325 29.8444 18.2175L29.8294 18.4144L29.8125 18.6094C29.7187 19.6819 29.58 20.7469 29.3719 21.5306C29.2018 22.168 28.8672 22.7495 28.4015 23.2168C27.9359 23.6841 27.3556 24.0208 26.7187 24.1931C24.5437 24.7781 16.2769 24.8194 15.1312 24.8212H14.865C14.2856 24.8212 11.8894 24.81 9.37687 24.7237L9.05812 24.7125L8.895 24.705L8.57437 24.6919L8.25375 24.6787C6.1725 24.5869 4.19062 24.4387 3.2775 24.1912C2.64092 24.0191 2.06075 23.6827 1.59511 23.2157C1.12947 22.7488 0.794713 22.1677 0.624375 21.5306C0.41625 20.7487 0.2775 19.6819 0.18375 18.6094L0.16875 18.4125L0.15375 18.2175C0.0612142 16.947 0.00993725 15.6738 0 14.4L0 14.1694C0.00375 13.7662 0.01875 12.3731 0.12 10.8356L0.133125 10.6425L0.13875 10.545L0.15375 10.35L0.195 9.86248L0.21375 9.66748C0.30375 8.69436 0.436875 7.74936 0.62625 7.03873C0.796301 6.40132 1.13093 5.81982 1.59659 5.35251C2.06224 4.88521 2.64257 4.54853 3.27937 4.37623C4.1925 4.13248 6.17437 3.98248 8.25562 3.88873L8.57437 3.87561L8.89687 3.86436L9.05812 3.85873L9.37875 3.84561C11.1632 3.78819 12.9484 3.75631 14.7337 3.74998H15.0956V3.74811ZM12 9.76686V18.8006L19.7944 14.2856L12 9.76686Z" fill="#232524"/>
</g>
<defs>
<clipPath id="clip0_200_606">
<rect width="30" height="30" fill="white"/>
</clipPath>
</defs>
</svg>

<svg width="30" height="30" fill="none" xmlns="http://www.w3.org/2000/svg"><g clip-path="url(#a)"><path d="M15.096 3.748h.166c1.542.006 9.351.062 11.457.628a3.769 3.769 0 0 1 2.653 2.663c.19.712.322 1.655.412 2.628l.02.195.04.488.015.195c.122 1.714.137 3.319.14 3.67v.14a60.16 60.16 0 0 1-.155 3.863l-.015.196-.017.195c-.093 1.073-.232 2.138-.44 2.922a3.763 3.763 0 0 1-2.653 2.662c-2.175.585-10.442.626-11.588.628h-.266c-.58 0-2.976-.011-5.488-.097l-.319-.012-.163-.007-.32-.013-.321-.013c-2.081-.092-4.063-.24-4.976-.488a3.762 3.762 0 0 1-2.654-2.66c-.208-.782-.346-1.85-.44-2.922l-.015-.197-.015-.194A58.876 58.876 0 0 1 0 14.4v-.23c.004-.404.019-1.797.12-3.334l.013-.194.006-.097.015-.195.041-.488.019-.195c.09-.973.223-1.918.412-2.628A3.763 3.763 0 0 1 3.28 4.376c.913-.244 2.895-.394 4.977-.487l.318-.013.323-.012.161-.005.32-.013c1.785-.058 3.57-.09 5.356-.096h.362v-.002zM12 9.767V18.8l7.794-4.515L12 9.766z" fill="#232524"/></g><defs><clipPath id="a"><path fill="#fff" d="M0 0h30v30H0z"/></clipPath></defs></svg>
